X:1
T:Title
%%score { ( 1 3 5 ) | ( 2 4 ) }
L:1/8
M:4/4
K:Bb
V:1 treble nm="Grand Piano"
V:3 treble 
V:5 treble 
V:2 bass 
V:4 bass 
V:1
 z4 z2[Q:1/4=94] [B,D]>[CE] | [DF]2 [DB]>[DB] [DB]>[FB] (3ABc | d2- [Fd-]>[Ed-] [Dd]2 [Ge]2 | %3
 d2 c>=B d2 c>A | F6[K:bass] z2[K:treble] | [DF]2 [DB]>[DB] [DB]>[FB] (3ABc | d6 z2 | %7
 d2 B>B A2 [=EG]>[EG] |[M:3/4] F6 |[M:1/4] F>F |[M:4/4] G2 G>G A2 [Ae]2 | d4 z4 | [GB]4 [EG]2 z2 | %13
 [EG]4 [DF]2 [DF]2 | FGAB c2 AF |[M:9/8] F-[Fc]d e f2- f F2 |[M:4/4] GABc d2 F2 | %17
[M:3/4] c4 [DB]2 |] %18
V:2
 z4 z2 [B,,F,]>[B,,F,] | [B,,B,]2 [B,,F,]>[B,,F,] F,->[D,F,] [F,E]2 | %2
 [B,,B,]2 [B,,A,]>[B,,G,] [B,,F,]2 [B,,B,]2 | [B,F]2 [A,E]>[_A,D] [F,=A,F]2 [A,F]>[CE] | %4
 B,4 z4[K:bass] | z4 F,2 z2 | [B,D]2 [A,C]>[A,C] [G,B,]2 [D,A,]>[D,A,] | %7
 [G,B,G]2 [B,DG]>[B,DG] [CF]2[K:bass] [C,B,]>[C,B,] |[M:3/4] [F,A,]6 |[M:1/4] [F,A,C]>[F,A,C] | %10
[M:4/4] [F,B,D]2 [F,B,D]>[F,B,D] [F,CE]2 [F,C]2 | [^F,D]2 [D,D]2 [G,DG]4 | [E,E]4 [E,B,]2 z2 | %13
 [B,,B,]4 [B,,B,]2 [B,,B,]2 | [F,E]-[F,B,E][F,CE][F,B,D] [F,A,F]2 [F,CF][E,A,] | %15
[M:9/8] [B,,B,][F,A,][K:treble][B,F] [A,CF] [B,DF]2- [B,DF][K:bass] F,2 |[M:4/4] G,A,B,C D2 F,2 | %17
[M:3/4] [F,A,E]4 [B,,B,]2 |] %18
V:3
 x8 | z4 z2 z z/ A,/ | D2 z2 z4 | x8 | z[K:bass] G, F,>D, B,,2 D>[K:treble][CE] | z4 z2 z z/ A,/ | %6
 z2 ^F>F G2 [Fd]>[Fd] | x8 |[M:3/4] x6 |[M:1/4] x2 |[M:4/4] x8 | A2 z c B4 | x8 | x8 | x8 | %15
[M:9/8] .B3 z3 z3 |[M:4/4] x8 |[M:3/4] x6 |] %18
V:4
 x8 | z4 B,,2 z2 | x8 | F,4 z2 F,2 | D6[K:bass] [B,,F,B,]>[B,,F,] | %5
 [B,,B,]2 [B,,F,]>[B,,F,] B,,>D, [F,E]2 | x8 | x6[K:bass] x2 |[M:3/4] x6 |[M:1/4] x2 |[M:4/4] x8 | %11
 x8 | x8 | x8 | .A,2 z2 z4 |[M:9/8] x2[K:treble] x5[K:bass] x2 |[M:4/4] x8 |[M:3/4] x6 |] %18
V:5
 x8 | x8 | x8 | x8 | x[K:bass] x13/2[K:treble] x/ | x8 | x8 | x8 |[M:3/4] x6 |[M:1/4] x2 | %10
[M:4/4] x8 | z2 ^F2 z4 | x8 | x8 | x8 |[M:9/8] x9 |[M:4/4] x8 |[M:3/4] x6 |] %18

